X:1
T:Resonet in laudibus
T:Resonet in laudibus
T:Messaus
%%score [ 1 2 3 4 ]
L:1/8
Q:1/4=130
M:3/2
K:F
V:1 treble nm="Soprano" snm="S."
V:2 treble nm="Alto" snm="A."
V:3 treble-8 nm="Tenor" snm="T."
V:4 bass nm="Bass" snm="B."
V:1
 c8 A4 | F8 A4 | c8 d4 | c8 z4 | c8 A4 | F8 A4 | c8 d4 | c8 z4 | B8 B4 | B8 B4 | (c4 B4) A4 | %11
 G8 A4 | c8 c4 | F8 A4 | c8 c4 | F8 A4 | G6 F2 G4 | A4 G8 | F12 |] %19
V:2
 F8 F4 | C8 D4 | E8 F4 | F8 z4 | F8 F4 | C8 D4 | E8 F4 | F8 z4 | D8 G4 | G8 G4 | G8 ^F4 | %11
 G8 C2 D2 | E8 E4 | F8 E4 | E6 D2 E4 | F8 F4 | E6 D2 E4 | F4 (F4 E4) | F12 |] %19
V:3
 A8 c4 | A8 F4 | G8 B4 | A8 z4 | A8 c4 | A8 F4 | G8 B4 | A8 z4 | d8 d4 | d8 _e4 | _e8 d4 | =B8 c4 | %12
 (A2 G2 A2 B2 c2) c2 | c8 c4 | (A2 G2 A2 B2 c2) c2 | c8 c4 | c6 A2 c4 | c4 (B4 G4) | A12 |] %19
V:4
 F,8 F,4 | F,8 D,4 | C,8 B,,4 | F,8 z4 | F,8 F,4 | F,8 D,4 | C,8 B,,4 | F,8 z4 | G,8 G,4 | %9
w: Re- so-|net in|lau- di-|bus,|Cum ju-|cun- dis|plau- si-|bus,|Da- vid|
 G,8 _E,4 | C,8 D,4 | G,8 F,4 | C,8 C,4 | F,8 F,4 | C,8 C,4 | F,8 E,4 | C,6 D,2 C,4 | %17
w: cum fi-|de- li-|bus. Ap-|pa- ru-|it, Ap-|pa- ru-|it, Quem|ge- nu- it|
 A,,4 (B,,4 C,4) | F,12 |] %19
w: Ma- ri _|a.|

